!!!OTL: Qiongpo diao
!!!ARE: Asia, China,ÿHenan, Anyang
!! IV, 139
!!!SCT: C1653
!!!YEM: Copyright 1995, estate of Helmut Schaffrath.
**kern
*ICvox
*Ivox
*M2/4
*k[b-]
*F:
{8cc
16a
16ff
8dd
16dd
16cc
=1
8g
8a
8a
16g
16f
=2
8.g
16a
8cc
16a
16cc
=3
4dd
16dd
16cc
8a}
=4
{8cc
16a
16ff
8dd
16dd
16cc
=5
8.g
16a
16a
16g
8f
=6
8.g
16a
8g
8c
=7
8f
16g
16f
4d}
=8
{8f
16d
16f
8d
16d
16d
=9
8a
16g
16a
4g
=10
8.g
16a
8cc
8a
=11
4dd
16dd
16cc
8a}
=12
{8cc
16a
16ff
8dd
16dd
16cc
=13
8.g
16a
16a
16g
8f
=14
8.g
16a
8g
8c
=15
8f
16g
16f
4d}
==
!!!AGN: Xiaodiao. Qiongfu duibi
!!!AMT: simple duple
!!!AIN: vox
!!!EED: Helmut Schaffrath
!!!EEV: 1.0
*-
